!!!COM: Music21
!!!OTL: Foliada de San Tirso
!!!OMV: pezas_foliadas_foliada-de-san-tirso_foliada-de-san-tirso-partitura-1.musicxml
**kern
*I"Bagpipes
*I'Bag
*clefG^2
*k[]
*M3/4
=1
!LO:TX:a:t=Prestissimo
*MM200
!LO:TX:a:t=[quarter]=200
4r
8ccL
8ddJ
8eeL
8ffJ
=||
4gg
4gg
4ee
=
4cc
4dd
4ee
=
4ff
12eeL
12ff
12eeJ
[4dd
=
2dd]
4ee
=
4gg
4ee
4ff
=
4dd
4gg
4ff
=
4ee
12ddL
12ee
12ddJ
[4cc
=
4cc]
8ccL
8ddJ
8eeL
8ffJ
!!linebreak:original
=||
4gg
4gg
4ee
=
4cc
4dd
4ee
=
4ff
12eeL
12ff
12eeJ
[4dd
=
2dd]
4ff
=
4gg
4ee
4ff
=
4dd
4gg
4ff
=
4ee
12ddL
12ee
12ddJ
[4cc
=
4cc]
8ccL
8ddJ
8eeL
8ffJ
!!linebreak:original
=||
4gg
4gg
4ee
=
4cc
4dd
4ee
=
4ff
12eeL
12ff
12eeJ
[4dd
=
2dd]
4ff
=
4gg
4ee
4ff
=
4dd
4gg
4ff
=
4ee
12ddL
12ee
12ddJ
[4cc
=
2.cc_
!!linebreak:original
=
2.cc_
=
4cc]
4cc
4ee
=||
4gg
4gg
[4gg
=
4gg]
2ff
=
4gg
4gg
[4cc
=
2.cc_
=
4cc]
4gg
4aa-X
=
4bb-X
4bb-
[4bb-
=
4bb-]
2ccc
=
8bb-XL
8aa-XJ
[2gg
=
2.gg_
=
4gg]
4cc
4ee
!!linebreak:original
=||
4gg
4gg
[4gg
=
4gg]
2ff
=
4gg
4gg
[4cc
=
2.cc_
=
4cc]
4gg
4aa-X
=
4bb-X
4bb-
[4bb-
=
4bb-]
2ccc
=
8bb-XL
8aa-XJ
[2gg
=
2.gg_
=
4gg]
4cc
4ee
!!linebreak:original
=||
4gg
4gg
[4gg
=
4gg]
2ff
=
4gg
4gg
[4cc
=
4cc]
2ee
=
4ff
4dd
[4b
=
4b]
2dd
=
4ee-X
12ddL
12ee-
12ddJ
[4cc
=
2.cc_
=
4cc]
4cc
4ee
!!linebreak:original
=||
4gg
4gg
[4gg
=
4gg]
2ff
=
4gg
4gg
[4cc
=
4cc]
2ee
=
4ff
4dd
[4b
=
4b]
2dd
=
4ee
12ddL
12ee
12ddJ
[4cc
=
2.cc_
!!linebreak:original
=
4cc]
4r
4ff
=||
4gg
4gg
4ee
=
4cc
4dd
4ee
=
4ff
12eeL
12ff
12eeJ
[4dd
=
2dd]
4ff
=
4gg
4ee
4ff
=
4dd
4gg
4ff
=
4ee
12ddL
12ee
12ddJ
[4cc
=
4cc]
4r
4ff
=||
4gg
4gg
4ee
!!linebreak:original
=
4cc
4dd
4ee
=
4ff
12eeL
12ff
12eeJ
[4dd
=
2dd]
4ff
=
4gg
4ee
4ff
=
4dd
4gg
4ff
=
4ee
12ddL
12ee
12ddJ
[4cc
=
4cc]
4r
4ff
=||
4gg
4gg
4ee
!!linebreak:original
=
4cc
4dd
4ee
=
4ff
12eeL
12ff
12eeJ
[4dd
=
2dd]
4ff
=
4gg
4ee
4ff
=
4dd
4gg
4ff
=||
4ee
12ddL
12ee
12ddJ
[4cc
=
2.cc_
!!pagebreak:original
=
2.cc_
=
4cc]
8ccL
8ddJ
8eeL
8ffJ
=||
4ee
12ddL
12ee
12ddJ
[4cc
=
2.cc_
=
2.cc_
=
4cc]
2r
==
*-
